X:1
T:BACK TO DONEGAL
M:6/8
L:1/8
Q:80
C:Traditional
S:March
K:HP
e[|
{g}A2{GdGe}A{g}A3/2B/2c|
{gBd}B2{e}A{GAG}A3/2{d}c/2e|
{g}f2{GdG}f{Gdc}d2f|  !
{gef}e3{A}e3/2f/2g|
a2{GdG}ag2a|
{fg}f2e{gcd}c2{e}A|  !
{gcd}c2B{gBG}B2{d}c|
{g}B3{GdGe}B3/2{d}c/2e|] [|
{g}A2{GdGe}A{g}A3/2B/2c|  !
{gBd}B2{e}A{GAG}A3/2{d}c/2e|
{g}f2{GdG}f{Gdc}d2f|
{gef}e3{A}e3/2f/2g|  !
a2{GdG}ag2a|
{fg}f2e{gcd}c2{e}A|
{gBd}B2{e}A{GAG}A2{d}B|  !
{g}A3{GAG}A2e|] [|
f2{GdG}f{Gdc}d2f|
a2ga2f|  !
{gef}e2c{g}A2{d}c|
{gef}e3{A}e2c|
{gef}e2c{gef}e2f|  !
{gef}e2c{gBd}B2{e}A|
{gcd}c2B{gBG}B2{d}c|
{g}B3{GdGe}B3/2{d}c/2e|] [|  !
{g}A2{GdGe}A{g}A3/2B/2c|
{gBd}B2{e}A{GAG}A3/2{d}c/2e|
{g}f2{GdG}f{Gdc}d2f|  !
{gef}e3{A}e3/2f/2g|
a2{GdG}ag2a|
{fg}f2e{gcd}c2{e}A|  !
{gBd}B2{e}A{GAG}A2{d}B|
{g}A3{GAG}A2|]

